!!!SOCIAL_FUNCTION:	song of the iron-line dance
!!!PDT:	1922
!!!OTL: No_51_Iron_Line_Dance_Song.krn
!!!REG: Southwest
!!!LANG: Non-Tone
!!!LING_GROUP: Uto-Aztecan
**kern	**kern
*staff2	*staff1
=1-	=1-
*clefF4	*clefF4
*k[f#c#]	*k[f#c#]
*M3/4	*M3/4
4GG/	16d\LK
.	8.d\J
4GG/	8B\L
.	8d\J
4GG/	8.B\L
.	16B\Jk
=2	=2
4GG/	2d\
4GG/	.
4GG/	16B\LK
.	8.B\J
=3	=3
2.r	8A\L
.	8A\J
.	4A\
.	8.F#\L
.	16A\Jk
=4||	=4||
*M2/4	*M2/4
2r	16A\LK
.	8.A\J
.	8F#\L
.	8A\J
=5||	=5||
*M3/4	*M3/4
2.r	2.A\
=6||	=6||
*M2/4	*M2/4
2r	16d\LK
.	8.d\J
.	8B\L
.	8d\J
=7||	=7||
*M3/4	*M3/4
2.r	8A\L
.	8G\J
.	8.F#\L
.	16A\Jk
.	16F#\LL
.	16E\J
.	8D\J
=8	=8
2.r	2D\
.	4BB/
=9||	=9||
*M2/4	*M2/4
2r	16D\LK
.	8.D\J
.	8BB/L
.	8D/J
=10||	=10||
*M3/4	*M3/4
2.r	2.D\
=11||	=11||
*M2/4	*M2/4
2r	16A\LK
.	8.A\J
.	8F#\L
.	8A\J
=12||	=12||
*M3/4	*M3/4
2.r	8F#\L
.	8E\J
.	8.D\L
.	16F#\Jk
.	16C#/LL
.	16BB/J
.	8AA/J
=13	=13
2.r	2AA/
.	4FF#/
=14||	=14||
*M2/4	*M2/4
2r	16AA/LK
.	8.AA/J
.	8FF#/L
.	8AA/J
=15||	=15||
*M3/4	*M3/4
2.r	2.AA/
=16	=16
2.r	16AA/LK
.	8.AA/J
.	8AA/L
.	8AA/J
.	4AA/
==	==
*-	*-
